brandFactory_export/2.Regular/Tanto por ciento % _2Regular.svg

<?xml version="1.0" encoding="UTF-8"?>
<svg width="24px" height="24px" viewBox="0 0 24 24" version="1.1" xmlns="http://www.w3.org/2000/svg" xmlns:xlink="http://www.w3.org/1999/xlink">
    <title>2.Regular/Tanto por ciento % _2Regular</title>
    <g id="Symbols" stroke="none" stroke-width="1" fill="none" fill-rule="evenodd">
        <g id="2.Regular/Tanto-por-ciento-%-_2Regular" fill="#5CB615" fill-rule="nonzero">
            <path d="M14.5983193,15.8218487 C15.1462185,15.8218487 15.210084,15.7579832 15.210084,15.2134454 C15.210084,14.6722689 15.1428571,14.605042 14.5983193,14.605042 C14.0504202,14.605042 13.989916,14.6655462 13.989916,15.2134454 C13.989916,15.7579832 14.0504202,15.8218487 14.5983193,15.8218487 Z M14.5983193,13.2268908 C15.8521008,13.2268908 16.5882353,13.8621849 16.5882353,15.2168067 C16.5882353,16.5714286 15.8554622,17.2033613 14.5983193,17.2033613 C13.3445378,17.2033613 12.6117647,16.5714286 12.6117647,15.2168067 C12.6117647,13.8588235 13.3411765,13.2268908 14.5983193,13.2268908 Z M9.02521008,7.94957983 C8.47731092,7.94957983 8.41680672,8.01008403 8.41680672,8.55798319 C8.41680672,9.10252101 8.47731092,9.16638655 9.02521008,9.16638655 C9.57310924,9.16638655 9.63361345,9.10588235 9.63361345,8.55798319 C9.63361345,8.01680672 9.56638655,7.94957983 9.02521008,7.94957983 Z M9.02521008,10.5445378 C7.76806723,10.5445378 7.03865546,9.9092437 7.03865546,8.55798319 C7.03865546,7.20336134 7.77142857,6.56806723 9.02521008,6.56806723 C10.2789916,6.56806723 11.0151261,7.20336134 11.0151261,8.55798319 C11.0151261,9.91260504 10.2789916,10.5445378 9.02521008,10.5445378 Z M15.4386555,6 C15.6705882,5.70084034 16.1008403,5.64369748 16.4,5.87563025 L16.4033613,5.8789916 C16.702521,6.11092437 16.7596639,6.54453782 16.5243697,6.84369748 L8.19495798,17.5596639 C7.96302521,17.8588235 7.52941176,17.9159664 7.22689076,17.6806723 C6.92773109,17.4487395 6.87058824,17.0151261 7.10588235,16.712605 L15.4386555,6 Z M11.8084034,22.1478992 C18.7630252,22.1478992 22.1478992,18.7663866 22.1478992,11.8151261 C22.1478992,4.85714286 18.7663866,1.47563025 11.8084034,1.47563025 C4.85714286,1.47563025 1.47563025,4.85714286 1.47563025,11.8151261 C1.47563025,18.7663866 4.85714286,22.1478992 11.8084034,22.1478992 Z M11.8084034,0 C19.2705882,0 23.6235294,3.76806723 23.6235294,11.8151261 C23.6235294,19.8621849 19.2705882,23.6235294 11.8084034,23.6235294 C4.34621849,23.6235294 0,19.8621849 0,11.8151261 C0,3.76806723 4.34621849,0 11.8084034,0 Z" id="Tanto-por-ciento-%-_2Regular"></path>
        </g>
    </g>
</svg>

<svg width="24" height="24" viewBox="0 0 24 24" xmlns="http://www.w3.org/2000/svg"><path d="M14.598 15.822c.548 0 .612-.064.612-.609 0-.54-.067-.608-.612-.608-.548 0-.608.06-.608.608 0 .545.06.609.608.609zm0-2.595c1.254 0 1.99.635 1.99 1.99 0 1.354-.733 1.986-1.99 1.986-1.253 0-1.986-.632-1.986-1.986 0-1.358.73-1.99 1.986-1.99zM9.025 7.95c-.548 0-.608.06-.608.608 0 .545.06.608.608.608s.609-.06.609-.608c0-.541-.068-.608-.609-.608zm0 2.595c-1.257 0-1.986-.636-1.986-1.987 0-1.355.732-1.99 1.986-1.99s1.99.635 1.99 1.99-.736 1.987-1.99 1.987zM15.44 6a.685.685 0 01.961-.124l.003.003c.3.232.357.666.121.965L8.195 17.56a.69.69 0 11-1.09-.847L15.44 6zm-3.63 16.148c6.954 0 10.339-3.382 10.339-10.333 0-6.958-3.382-10.34-10.34-10.34-6.95 0-10.332 3.382-10.332 10.34 0 6.951 3.381 10.333 10.332 10.333zm0-22.148c7.462 0 11.815 3.768 11.815 11.815S19.27 23.624 11.808 23.624C4.346 23.624 0 19.862 0 11.815 0 3.768 4.346 0 11.808 0z" fill="#5CB615" fill-rule="nonzero"/></svg>
